_includes/icons/color-favorite-folder.svg

<svg fill="#666" height="50" viewBox="0 0 48 48" width="50" xmlns="http://www.w3.org/2000/svg"><path d="m40 12h-18l-4-4h-10c-2.199219 0-4 1.800781-4 4v8h40v-4c0-2.199219-1.800781-4-4-4z" fill="#ffa000"/><path d="m40 12h-32c-2.199219 0-4 1.800781-4 4v20c0 2.199219 1.800781 4 4 4h32c2.199219 0 4-1.800781 4-4v-20c0-2.199219-1.800781-4-4-4z" fill="#ffca28"/><path d="m28.5 19c-1.898437 0-3.601562 1-4.5 2.398438-1-1.398438-2.601562-2.398438-4.5-2.398438-3 0-5.5 2.398438-5.5 5.5 0 5.398438 10 10.898438 10 10.898438s10-5.398438 10-10.898438c0-3.101562-2.398437-5.5-5.5-5.5z" fill="#f44336"/></svg>

<svg xmlns="http://www.w3.org/2000/svg" viewBox="0 0 48 48" width="50" height="50" fill="#666"><path d="M 40 12 L 22 12 L 18 8 L 8 8 C 5.800781 8 4 9.800781 4 12 L 4 20 L 44 20 L 44 16 C 44 13.800781 42.199219 12 40 12 Z" fill="#ffa000"/><path d="M 40 12 L 8 12 C 5.800781 12 4 13.800781 4 16 L 4 36 C 4 38.199219 5.800781 40 8 40 L 40 40 C 42.199219 40 44 38.199219 44 36 L 44 16 C 44 13.800781 42.199219 12 40 12 Z" fill="#ffca28"/><path d="M 28.5 19 C 26.601563 19 24.898438 20 24 21.398438 C 23 20 21.398438 19 19.5 19 C 16.5 19 14 21.398438 14 24.5 C 14 29.898438 24 35.398438 24 35.398438 C 24 35.398438 34 30 34 24.5 C 34 21.398438 31.601563 19 28.5 19 Z" fill="#f44336"/></svg>
